package/converter/svg/solid/signal-bars.svg

<svg xmlns="http://www.w3.org/2000/svg" viewBox="0 0 640 512"><!--! Font Awesome Pro 6.6.0 by @fontawesome - https://fontawesome.com License - https://fontawesome.com/license (Commercial License) Copyright 2024 Fonticons, Inc. --><path d="M560 0c-26.5 0-48 21.5-48 48l0 416c0 26.5 21.5 48 48 48s48-21.5 48-48l0-416c0-26.5-21.5-48-48-48zM352 176l0 288c0 26.5 21.5 48 48 48s48-21.5 48-48l0-288c0-26.5-21.5-48-48-48s-48 21.5-48 48zM240 256c-26.5 0-48 21.5-48 48l0 160c0 26.5 21.5 48 48 48s48-21.5 48-48l0-160c0-26.5-21.5-48-48-48zM80 384c-26.5 0-48 21.5-48 48l0 32c0 26.5 21.5 48 48 48s48-21.5 48-48l0-32c0-26.5-21.5-48-48-48z"/></svg>

<svg xmlns="http://www.w3.org/2000/svg" viewBox="0 0 640 512"><!-- Font Awesome Pro 6.0.0-alpha2 by @fontawesome - https://fontawesome.com License - https://fontawesome.com/license (Commercial License) --><path d="M240 256H240C213.6 256 192 277.6 192 304V464C192 490.4 213.6 512 240 512H240C266.4 512 288 490.4 288 464V304C288 277.6 266.4 256 240 256ZM80 384H80C53.6 384 32 405.6 32 432V464C32 490.4 53.6 512 80 512H80C106.4 512 128 490.4 128 464V432C128 405.6 106.4 384 80 384ZM400 128H400C373.6 128 352 149.6 352 176V464C352 490.4 373.6 512 400 512H400C426.4 512 448 490.4 448 464V176C448 149.6 426.4 128 400 128ZM560 0H560C533.6 0 512 21.6 512 48V464C512 490.4 533.6 512 560 512H560C586.4 512 608 490.4 608 464V48C608 21.6 586.4 0 560 0Z"/></svg>
